images/picto-demo-01.svg

<svg xmlns="http://www.w3.org/2000/svg" width="80" height="80" fill="none" viewBox="0 0 80 80"><circle cx="54.4031" cy="23.2" r="20" fill="#fe5455"/><path fill="#000638" d="M15.055 47.245C15.573 46.721 16.417 46.717 16.94 47.235 17.429 47.718 17.465 48.486 17.047 49.011L16.95 49.12 10.822 55.314 20.776 55.67C21.449 55.694 21.99 56.213 22.055 56.87L22.062 57.003 22.061 66.73 27.046 60.888C27.492 60.365 28.255 60.272 28.81 60.651L28.926 60.739C29.449 61.185 29.542 61.948 29.163 62.503L29.075 62.619 21.743 71.212C20.967 72.121 19.505 71.625 19.401 70.477L19.395 70.347 19.394 58.289 7.688 57.87C6.572 57.83 6.015 56.532 6.7 55.698L6.788 55.6 15.055 47.245ZM59.557 47.724C59.974 47.178 60.731 47.044 61.306 47.393L61.426 47.475 71.891 55.479C72.85 56.213 72.411 57.717 71.256 57.86L71.124 57.87 58.252 58.292 58.252 70.347C58.252 71.536 56.828 72.111 56.001 71.315L55.912 71.221 48.445 62.628C47.962 62.072 48.022 61.23 48.577 60.747 49.096 60.296 49.864 60.318 50.357 60.774L50.458 60.879 55.585 66.78 55.585 57.003C55.585 56.328 56.087 55.768 56.742 55.681L56.875 55.67 67.302 55.327 59.806 49.593C59.26 49.175 59.126 48.418 59.475 47.844L59.557 47.724Z"/><path fill="#000638" fill-rule="evenodd" d="M58.2525 35.0217C58.2525 24.6159 49.8169 16.1803 39.4111 16.1803C38.6747 16.1803 38.0778 16.7773 38.0778 17.5136C38.0778 18.25 38.6747 18.847 39.4111 18.847C48.3441 18.847 55.5858 26.0886 55.5858 35.0217C55.5858 42.3639 50.651 48.7303 43.6698 50.6302C42.9592 50.8236 42.54 51.5564 42.7334 52.2669C42.9267 52.9774 43.6595 53.3967 44.37 53.2033C52.5049 50.9894 58.2525 43.5745 58.2525 35.0217ZM35.0921 19.4295C35.8019 19.2334 36.2183 18.499 36.0222 17.7893C35.826 17.0795 35.0917 16.6631 34.3819 16.8592C26.2816 19.0974 20.5692 26.4953 20.5692 35.0217C20.5692 43.6206 26.3784 51.0651 34.5737 53.2361C35.2855 53.4246 36.0154 53.0005 36.204 52.2886C36.3926 51.5768 35.9684 50.8469 35.2565 50.6583C28.2237 48.7952 23.2359 42.4034 23.2359 35.0217C23.2359 27.7022 28.1405 21.3503 35.0921 19.4295Z" clip-rule="evenodd"/><path fill="#000638" fill-rule="evenodd" d="M28.176 30.0599L34.4085 28.9557L38.7465 22.8429C39.3389 22.0081 40.6121 22.1244 41.0433 23.0529L43.7898 28.9663L50.1139 29.9709C51.151 30.1355 51.5841 31.3651 50.9293 32.1419L50.8377 32.2405L46.6111 36.3765L47.5551 43.4707C47.6916 44.4974 46.6642 45.2635 45.7346 44.8833L45.619 44.8298L39.5391 41.6725L33.4593 44.8298C32.5408 45.3066 31.4717 44.6022 31.512 43.5994L31.5229 43.4726L32.4458 36.4479L27.5581 32.3997C26.7182 31.704 27.0294 30.3703 28.0454 30.0894L28.176 30.0599ZM41.6705 30.7345L39.5915 26.2581L36.2684 30.9444C36.0656 31.2302 35.7586 31.4247 35.4136 31.4858L31.4773 32.1823L34.7152 34.8647C35.0292 35.1247 35.2048 35.512 35.1979 35.9142L35.1867 36.0655L34.5003 41.2842L38.9248 38.9874C39.2618 38.8125 39.6549 38.7906 40.006 38.9218L40.1536 38.9874L44.5739 41.2821L43.8809 36.0673C43.8324 35.7029 43.9367 35.3372 44.1646 35.0546L44.2698 34.9389L47.0784 32.1887L42.6708 31.4898C42.2812 31.4279 41.9416 31.1974 41.7396 30.8642L41.6705 30.7345Z" clip-rule="evenodd"/><path fill="#000638" fill-rule="evenodd" d="M42.0504 10.8383L42.893 10.3258C44.4779 9.39955 45.7516 9.08079 47.332 9.5169C49.2168 10.037 49.8677 11.0524 50.3951 13.158L50.4709 13.4591L50.5613 13.7922C50.7859 14.5643 51.0293 14.9488 51.5102 15.254C52.0328 15.5855 52.6017 15.7973 53.6106 16.0368L54.1089 16.1499L55.453 16.4335L56.0629 16.5736C58.0994 17.0644 59.1367 17.583 60.1209 18.7578C61.1048 19.9321 61.2632 20.9796 61.0313 23.159L60.9622 23.7541L60.8564 24.5832L60.8133 24.9596L60.777 25.3569C60.6804 26.6289 60.8313 27.4312 61.3259 28.0789C61.6993 28.568 62.0734 28.9523 62.5011 29.3093C62.5195 29.3247 62.5413 29.3424 62.5657 29.3621L63.1752 29.8304L63.6072 30.1534L63.8148 30.3171C65.0683 31.3494 65.5804 32.5033 65.5804 34.6601C65.5804 36.8243 64.8626 38.014 63.1895 39.4652L62.7081 39.8812L62.4423 40.119C61.7481 40.7579 61.3601 41.2763 61.0727 42.0143C60.791 42.7377 60.6768 43.3685 60.6428 44.3723L60.6321 44.9075L60.6319 46.0907C60.6074 48.3774 60.2825 49.4343 58.8984 50.4845C57.9984 51.1675 57.1542 51.4853 56.0757 51.6498L55.978 51.6643L55.2389 51.7596C54.0553 51.9199 53.5129 52.1271 52.6153 52.8485C52.0207 53.3265 51.638 53.9644 51.2217 55.0705L50.9855 55.721L50.7524 56.3507C49.872 58.6115 48.9171 59.6469 46.7505 59.9317C44.7676 60.1923 43.67 59.6453 42.3444 58.2447L41.9957 57.8793C41.277 57.1517 40.8175 56.931 39.8339 56.931C38.7864 56.931 38.2484 57.1806 37.2482 57.9766L36.8007 58.3293C35.2668 59.4971 34.0193 59.8757 31.936 59.4429C29.5389 58.9449 28.3446 57.6016 27.483 55.2786L27.0537 54.0755L26.9259 53.75C26.7225 53.2584 26.5615 53.0113 26.3723 52.8655C26.1464 52.6915 25.8539 52.5637 25.3825 52.4496L25.0405 52.3753L24.638 52.3028L24.1677 52.2301L22.964 52.0661C20.8386 51.7619 19.697 51.3766 18.7111 50.3424C17.7946 49.3812 17.4819 48.2694 17.4866 46.4253L17.4964 45.878L17.5219 45.2878C17.5384 44.9815 17.5602 44.658 17.5866 44.3156L17.6591 43.3711L17.7068 42.6285L17.7254 42.2133L17.7334 41.8523C17.7342 41.74 17.7332 41.6353 17.7304 41.5368L17.7162 41.2586L17.6906 41.0092L17.6534 40.7802L17.6304 40.6706C17.5505 40.3175 17.3711 40.0591 16.9036 39.6889L16.6189 39.4747C16.5138 39.3988 16.3979 39.3179 16.2703 39.2309L15.8391 38.9339C14.0908 37.6957 13.31 36.5893 13.31 34.527C13.31 32.4408 14.0463 31.3444 15.7665 30.0014L16.3322 29.5556C17.08 28.9428 17.4329 28.4956 17.6675 27.8004C17.9048 27.0974 17.9767 26.2497 17.9365 25.0064L17.9282 24.7756L17.8619 23.3686L17.8429 22.77L17.8367 22.22L17.8448 21.7147C17.9006 20.02 18.2515 19.0756 19.2178 18.1287C20.3616 17.0078 21.5675 16.7708 23.6086 16.8552L24.1585 16.8789L24.6078 16.8906L24.9884 16.8888C25.6865 16.8707 26.0228 16.7627 26.302 16.5154C26.6305 16.2244 26.8828 15.8428 27.2377 15.0834L27.4245 14.6709L27.9144 13.54L28.1555 13.0182L28.3923 12.5445C29.1792 11.0424 29.9591 10.2971 31.3631 9.87545C32.6867 9.47798 33.8542 9.70421 35.2353 10.4028C35.2923 10.4316 35.3496 10.4612 35.4084 10.492L35.7862 10.6961L36.5695 11.133C37.7623 11.7823 38.4395 11.9982 39.2832 11.9392C40.1522 11.8784 40.8324 11.5866 42.0504 10.8383ZM62.2286 32.4674L62.009 32.2877L61.053 31.5649L60.7921 31.3564C60.2173 30.8765 59.7051 30.3504 59.2064 29.6972C58.1787 28.3511 57.9471 26.8609 58.1475 24.8168L58.1906 24.4165L58.312 23.4563L58.3696 22.963L58.4117 22.5286C58.4231 22.3931 58.4318 22.2664 58.4377 22.1479L58.4473 21.8155C58.4497 21.1441 58.333 20.7761 58.0768 20.4703C57.632 19.9393 57.0752 19.6194 55.9968 19.3136L55.5672 19.1993C55.4912 19.1802 55.4131 19.1611 55.3325 19.1419L54.8206 19.0251L53.4642 18.7388L52.8644 18.6011C51.6409 18.3055 50.8852 18.0155 50.0816 17.5057C48.8822 16.7447 48.3258 15.7711 47.9283 14.2763L47.7567 13.6041L47.6592 13.2526C47.4211 12.4558 47.2082 12.2491 46.6227 12.0875C45.866 11.8787 45.2624 12.0297 44.2386 12.6281L43.1419 13.2948C41.7528 14.1233 40.7841 14.5074 39.4691 14.5994C37.9035 14.7088 36.7838 14.3123 35.0016 13.3132L34.234 12.8862L33.8309 12.6842C33.1167 12.3485 32.6384 12.2768 32.13 12.4294C31.4992 12.6189 31.0938 13.0604 30.54 14.2154L30.3378 14.6534L29.8348 15.8148L29.6021 16.3254C29.1145 17.3585 28.7169 17.9388 28.07 18.5117C27.1621 19.3158 26.3329 19.5541 24.8649 19.5594L24.3509 19.5531L23.2522 19.5111C22.0644 19.4792 21.5186 19.6077 21.0842 20.0333C20.7543 20.3566 20.5842 20.7948 20.5283 21.6233L20.5119 21.9762C20.5101 22.0387 20.5089 22.1031 20.508 22.1694L20.5087 22.5921L20.5293 23.3237L20.5975 24.7959L20.6111 25.2957C20.6336 26.6427 20.5257 27.6707 20.1941 28.6531C19.7381 30.0042 19.0335 30.827 17.7666 31.8233L17.2154 32.2556C16.2363 33.0452 15.9767 33.4927 15.9767 34.527C15.9767 35.5885 16.318 36.0345 17.5766 36.8941L18.0259 37.203C19.3323 38.1227 19.945 38.8164 20.2313 40.0823C20.3529 40.6198 20.4059 41.1168 20.4037 41.7863L20.3958 42.2104L20.3605 42.9465L20.3222 43.5189L20.2729 44.1684L20.2043 45.1119L20.1766 45.6486C20.1731 45.7336 20.1702 45.8165 20.1679 45.8972L20.1609 46.3565C20.1611 47.5155 20.3127 48.1578 20.6411 48.5023C21.0032 48.8821 21.5663 49.1147 22.617 49.3087L23.0979 49.3898C23.2687 49.4162 23.4504 49.4422 23.6436 49.4681L24.2856 49.5535L24.8649 49.6372L25.3804 49.7224C26.596 49.9401 27.2866 50.2036 27.9997 50.753C28.8173 51.3829 29.194 52.1068 29.7117 53.5849L29.9412 54.2368L30.0695 54.5769C30.6175 55.9639 31.2061 56.5677 32.4784 56.832C33.7737 57.1011 34.2887 56.9232 35.3625 56.0696L35.8359 55.6962C37.1422 54.6976 38.1739 54.2643 39.8339 54.2643C41.7411 54.2643 42.8187 54.8682 44.0892 56.2084L44.4251 56.5614C45.1205 57.2712 45.4725 57.41 46.4031 57.2877C47.2656 57.1744 47.6569 56.8504 48.1255 55.74L48.2767 55.3625C48.3284 55.2276 48.3815 55.0832 48.4368 54.9288L48.7259 54.1311C49.2953 52.6184 49.9009 51.609 50.9447 50.77C52.3649 49.6285 53.3598 49.3004 55.1803 49.0787L55.595 49.0253L55.8881 48.9772C56.439 48.8727 56.831 48.7058 57.2865 48.3602C57.7067 48.0413 57.8825 47.6853 57.9416 46.7935L57.9586 46.433C57.9606 46.3684 57.9622 46.3014 57.9635 46.2321L57.9668 45.7852L57.9643 45.1629C57.9647 43.3435 58.0866 42.3337 58.5878 41.0466C59.0853 39.7692 59.7733 38.9112 60.8985 37.9213L61.6358 37.2799C62.6246 36.3913 62.9137 35.8426 62.9137 34.6601C62.9137 33.3839 62.7694 32.9435 62.2286 32.4674Z" clip-rule="evenodd"/></svg>

<svg xmlns="http://www.w3.org/2000/svg" width="80" height="80" fill="none" viewBox="0 0 80 80"><circle cx="54.4031" cy="23.2" r="20" fill="#FE5455"/><path fill="#000638" d="M15.055 47.245a1.333 1.333 0 0 1 1.992 1.766l-.097.11-6.128 6.193 9.954.356a1.33 1.33 0 0 1 1.28 1.2l.006.133-.001 9.727 4.985-5.842a1.334 1.334 0 0 1 1.764-.237l.116.088c.523.446.616 1.209.237 1.764l-.088.116-7.332 8.593c-.776.91-2.238.413-2.342-.735l-.006-.13V58.289L7.687 57.87c-1.116-.04-1.673-1.338-.988-2.172l.088-.098zm44.502.479a1.334 1.334 0 0 1 1.749-.331l.12.082 10.465 8.004c.96.734.52 2.238-.635 2.381l-.132.01-12.872.422v12.055c0 1.19-1.424 1.764-2.25.968l-.09-.094-7.467-8.593a1.333 1.333 0 0 1 1.912-1.854l.101.105 5.127 5.9v-9.776c0-.675.502-1.235 1.157-1.322l.133-.011 10.427-.343-7.496-5.734a1.334 1.334 0 0 1-.331-1.75z"/><path fill="#000638" fill-rule="evenodd" d="M58.253 35.022c0-10.406-8.436-18.842-18.842-18.842a1.333 1.333 0 0 0 0 2.667c8.933 0 16.175 7.242 16.175 16.175A16.18 16.18 0 0 1 43.67 50.63a1.333 1.333 0 0 0 .7 2.573 18.85 18.85 0 0 0 13.883-18.181M35.093 19.43a1.333 1.333 0 1 0-.711-2.57 18.848 18.848 0 0 0 .192 36.376 1.333 1.333 0 0 0 .683-2.578 16.181 16.181 0 0 1-.165-31.228" clip-rule="evenodd"/><path fill="#000638" fill-rule="evenodd" d="m28.176 30.06 6.232-1.104 4.338-6.113a1.333 1.333 0 0 1 2.297.21l2.747 5.913 6.324 1.005c1.037.165 1.47 1.394.815 2.17l-.091.1-4.227 4.136.944 7.094c.137 1.026-.89 1.793-1.82 1.412l-.116-.053-6.08-3.157-6.08 3.157c-.918.477-1.987-.228-1.947-1.23l.01-.127.924-7.025-4.888-4.048c-.84-.696-.529-2.03.487-2.31zm13.494.675-2.078-4.477-3.324 4.686c-.202.286-.51.48-.854.542l-3.937.696 3.238 2.683c.314.26.49.647.483 1.05l-.011.15-.687 5.22 4.425-2.298c.337-.175.73-.196 1.081-.065l.148.065 4.42 2.295-.693-5.215a1.33 1.33 0 0 1 .284-1.012l.105-.116 2.808-2.75-4.407-.7a1.33 1.33 0 0 1-.931-.625z" clip-rule="evenodd"/><path fill="#000638" fill-rule="evenodd" d="m42.05 10.838.843-.512c1.585-.926 2.859-1.245 4.439-.81 1.885.521 2.536 1.536 3.063 3.642l.076.301.09.333c.225.772.468 1.157.95 1.462.522.332 1.09.543 2.1.783l.498.113 1.344.284.61.14c2.036.49 3.074 1.009 4.058 2.184.984 1.174 1.142 2.222.91 4.401l-.069.595-.106.83-.043.376-.036.397c-.097 1.272.054 2.074.549 2.722a7.4 7.4 0 0 0 1.24 1.283l.61.468.431.323.208.164c1.253 1.032 1.765 2.186 1.765 4.343 0 2.164-.717 3.354-2.39 4.805l-.482.416-.266.238c-.694.639-1.082 1.157-1.37 1.895-.281.724-.395 1.354-.43 2.358l-.01.535v1.184c-.025 2.286-.35 3.343-1.734 4.393-.9.683-1.744 1.001-2.822 1.166l-.098.014-.74.096c-1.183.16-1.725.367-2.623 1.089-.594.478-.977 1.115-1.393 2.222l-.236.65-.234.63c-.88 2.26-1.835 3.296-4.001 3.58-1.983.261-3.081-.286-4.407-1.686l-.348-.366c-.719-.727-1.178-.948-2.162-.948-1.048 0-1.586.25-2.586 1.046l-.447.352c-1.534 1.168-2.782 1.547-4.865 1.114-2.397-.498-3.591-1.841-4.453-4.164l-.43-1.204-.127-.325c-.203-.492-.364-.739-.554-.885-.226-.174-.518-.301-.99-.415l-.341-.075-.403-.072-.47-.073-1.204-.164c-2.125-.304-3.267-.69-4.253-1.724-.916-.96-1.23-2.073-1.224-3.917l.01-.547.025-.59q.024-.459.065-.972l.072-.945.048-.742.018-.416.008-.36q.002-.17-.003-.316l-.014-.278-.025-.25-.038-.229-.023-.11c-.08-.352-.259-.61-.726-.981l-.285-.214a16 16 0 0 0-.349-.244l-.43-.297c-1.75-1.238-2.53-2.345-2.53-4.407 0-2.086.736-3.183 2.457-4.526l.565-.445c.748-.613 1.1-1.06 1.335-1.756.238-.703.31-1.55.27-2.794l-.009-.23-.066-1.407-.02-.599-.005-.55.008-.505c.056-1.695.407-2.64 1.373-3.586 1.144-1.121 2.35-1.358 4.39-1.274l.55.024.45.012.38-.002c.698-.018 1.035-.126 1.314-.374.329-.29.58-.672.936-1.432l.186-.412.49-1.131.241-.522.237-.474c.787-1.502 1.567-2.247 2.971-2.669 1.324-.397 2.491-.17 3.872.528q.086.043.173.089l.378.204.783.437c1.193.65 1.87.865 2.714.806.87-.06 1.55-.352 2.767-1.1m20.179 21.63-.22-.18-.956-.723-.26-.209a10 10 0 0 1-1.587-1.659c-1.027-1.346-1.259-2.836-1.059-4.88l.044-.4.121-.96.058-.494.042-.434a11 11 0 0 0 .026-.381l.01-.332c.002-.672-.115-1.04-.371-1.346-.445-.53-1.002-.85-2.08-1.156l-.43-.115-.234-.057-.512-.117-1.357-.286-.6-.138c-1.223-.296-1.979-.585-2.782-1.095-1.2-.761-1.756-1.735-2.154-3.23l-.171-.672-.098-.351c-.238-.797-.45-1.004-1.036-1.165-.757-.21-1.36-.058-2.384.54l-1.097.667c-1.39.828-2.358 1.212-3.673 1.304-1.565.11-2.685-.287-4.467-1.286l-.768-.427-.403-.202c-.714-.335-1.193-.407-1.701-.255-.63.19-1.036.631-1.59 1.786l-.202.438-.503 1.162-.233.51c-.488 1.034-.885 1.614-1.532 2.187-.908.804-1.737 1.042-3.205 1.047l-.514-.006-1.099-.042c-1.188-.032-1.733.097-2.168.522-.33.324-.5.762-.556 1.59l-.016.353-.004.193v.423l.021.732.069 1.472.013.5c.023 1.347-.085 2.375-.417 3.357-.456 1.351-1.16 2.174-2.427 3.17l-.552.433c-.979.79-1.238 1.237-1.238 2.271 0 1.062.341 1.508 1.6 2.367l.449.309c1.306.92 1.919 1.613 2.205 2.88.122.537.175 1.034.173 1.703l-.008.424-.036.736-.038.573-.05.65-.068.943-.027.537-.01.248-.006.46c0 1.159.152 1.8.48 2.145.362.38.925.613 1.976.807l.48.08q.257.04.547.08l.642.084.579.084.515.085c1.216.218 1.907.482 2.62 1.031.817.63 1.194 1.354 1.712 2.832l.23.652.128.34c.547 1.387 1.136 1.99 2.408 2.255 1.296.27 1.81.091 2.884-.762l.474-.374c1.306-.998 2.338-1.432 3.998-1.432 1.907 0 2.985.604 4.255 1.944l.336.353c.696.71 1.047.849 1.978.727.863-.114 1.254-.438 1.723-1.548l.15-.378q.078-.201.16-.433l.29-.798c.57-1.513 1.175-2.522 2.219-3.361 1.42-1.142 2.415-1.47 4.235-1.691l.415-.054.293-.048a3.04 3.04 0 0 0 1.398-.617c.42-.319.596-.675.656-1.566l.017-.361.005-.2.003-.448-.003-.622c0-1.82.123-2.83.624-4.116.497-1.278 1.185-2.136 2.31-3.126l.738-.641c.989-.889 1.278-1.437 1.278-2.62 0-1.276-.145-1.716-.685-2.193" clip-rule="evenodd"/></svg>
